src/assets/icons/pul-icon-library.svg

<!-- Generated by IcoMoon.io -->
<svg version="1.1" xmlns="http://www.w3.org/2000/svg" width="16" height="16" viewBox="0 0 16 16">
<title>library</title>
<path d="M15.667 15.333h-15.333c-0.184 0-0.333 0.149-0.333 0.333s0.149 0.333 0.333 0.333h15.333c0.184 0 0.333-0.149 0.333-0.333s-0.149-0.333-0.333-0.333z"></path>
<path d="M0.333 14.667h15.333c0.184 0 0.333-0.149 0.333-0.333s-0.149-0.333-0.333-0.333h-1v-1c0-0.184-0.149-0.333-0.333-0.333h-0.333v-6.667h1c0.184 0 0.333-0.149 0.333-0.333v-1.267c0.005-0.022 0.013-0.043 0.013-0.066 0-0.040-0.022-0.071-0.035-0.106-0.003-0.011-0.006-0.023-0.011-0.033-0.016-0.033-0.033-0.061-0.059-0.087-0.028-0.031-0.062-0.055-0.1-0.073-0.009-0.004-0.014-0.015-0.025-0.018l-6.952-3.973c-0.102-0.059-0.229-0.059-0.331 0l-7 4c-0.017 0.009-0.029 0.023-0.043 0.035-0.011 0.009-0.023 0.017-0.033 0.027-0.025 0.027-0.046 0.057-0.061 0.090-0.001 0.003-0.004 0.005-0.005 0.009-0.015 0.037-0.023 0.077-0.024 0.118 0 0.004-0.002 0.007-0.002 0.011v1.333c0 0.184 0.149 0.333 0.333 0.333h1v6.667h-0.333c-0.184 0-0.333 0.149-0.333 0.333v1h-1c-0.184 0-0.333 0.149-0.333 0.333s0.149 0.333 0.333 0.333zM13.333 12.667h-0.667v-6.667h0.667v6.667zM10.667 12.667v-6.667h1.333v6.667h-1.333zM9.333 12.667v-6.667h0.667v6.667h-0.667zM7.333 12.667v-6.667h1.333v6.667h-1.333zM6 12.667v-6.667h0.667v6.667h-0.667zM4 12.667v-6.667h1.333v6.667h-1.333zM8 0.717l5.745 3.283h-11.489l5.745-3.283zM1.333 4.667h13.333v0.667h-13.333v-0.667zM2.667 6h0.667v6.667h-0.667v-6.667zM2 13.333h12v0.667h-12v-0.667z"></path>
</svg>

<svg xmlns="http://www.w3.org/2000/svg" viewBox="0 0 16 16">
    <path d="M15.667 15.333H.334a.333.333 0 1 0 0 .666h15.333a.333.333 0 1 0 0-.666zM.333 14.667h15.333a.333.333 0 1 0 0-.666h-1v-1a.333.333 0 0 0-.333-.333H14V6.001h1a.333.333 0 0 0 .333-.333V4.401c.005-.022.013-.043.013-.066 0-.04-.022-.071-.035-.106-.003-.011-.006-.023-.011-.033a.304.304 0 0 0-.059-.087.315.315 0 0 0-.1-.073c-.009-.004-.014-.015-.025-.018L8.164.045a.332.332 0 0 0-.331 0l-7 4c-.017.009-.029.023-.043.035-.011.009-.023.017-.033.027a.34.34 0 0 0-.061.09c-.001.003-.004.005-.005.009a.336.336 0 0 0-.024.118l-.002.011v1.333c0 .184.149.333.333.333h1v6.667h-.333a.333.333 0 0 0-.333.333v1h-1a.333.333 0 1 0 0 .666zm13-2h-.667V6h.667v6.667zm-2.666 0V6H12v6.667h-1.333zm-1.334 0V6H10v6.667h-.667zm-2 0V6h1.333v6.667H7.333zm-1.333 0V6h.667v6.667H6zm-2 0V6h1.333v6.667H4zM8 .717L13.745 4H2.256L8.001.717zm-6.667 3.95h13.333v.667H1.333v-.667zM2.667 6h.667v6.667h-.667V6zM2 13.333h12V14H2v-.667z"/>
</svg>
